X: 7975
T: Congress, The
R: reel
M: 4/4
K: Adorian
|:eAAG ABcd|eAaf gedg|eAAG ABcA|BGGF GABd|
eAAG ABcd|eAaf gedB|cBcd e/f/g ed|cABGA4:|
|:e(a{b}ag) a2({b}ag)|e(a{b}af) gedg|egdg egdg|eAaf gedg|
e(a{b}ag) a2({b}ag)|e(a{b}af) gedB|cBcd e/f/g ed|cABGA4:|

